source/images/logo/bootstrap.svg

<svg fill="none" height="48" viewBox="0 0 190 48" width="190" xmlns="http://www.w3.org/2000/svg"><path d="m48 39.9999c0 4.4001-3.6 8.0001-8.0001 8.0001h-31.99997c-4.39994 0-7.99993-3.6-7.99993-8.0001v-31.99976c0-4.40015 3.59999-8.00014 7.99993-8.00014h31.99997c4.4001 0 8.0001 3.59999 8.0001 8.00014z" fill="#5b3b7e"/><path d="m17.8989 34.3963h8.6667c1.4902 0 2.6509-.3843 3.4668-1.1607.8234-.7687 1.2391-1.8667 1.2391-3.2785 0-1.3883-.4079-2.447-1.2391-3.2-.8314-.753-1.9766-1.1137-3.4668-1.1137h-8.6667zm0-12.2745h8.0001c1.1765 0 2.1568-.3293 2.9412-1.0038.7842-.6745 1.1765-1.6314 1.1765-2.8862 0-1.4118-.353-2.4079-1.059-2.9804-.7058-.5726-1.7254-.8627-3.0587-.8627h-8.0001zm-4.9021-11.7253h13.608c2.5098 0 4.5256.5726 6.0393 1.7255 1.5137 1.153 2.2744 2.8863 2.2744 5.2156 0 1.4118-.345 2.6197-1.0353 3.6235-.6902 1.0038-1.6783 1.7883-2.9647 2.3372v.0784c1.7256.3687 3.0354 1.1844 3.9216 2.4471.8863 1.2706 1.3333 2.8549 1.3333 4.7686 0 1.098-.1961 2.1255-.5881 3.0746-.3922.9568-1.0041 1.7803-1.8432 2.4705-.8392.6903-1.9059 1.2392-3.2158 1.6471-1.3098.4078-2.8627.6118-4.6665.6118h-12.863z" fill="#fff"/><g fill="#5b3b7e"><path d="m61.4656 31.9928h5.607c.9625 0 1.6385-.0359 2.0277-.1076.6861-.1229 1.2597-.3276 1.7207-.6143.4608-.2868.8394-.7041 1.1366-1.252.297-.548.4455-1.1804.4455-1.8973 0-.8396-.215-1.5695-.6451-2.1893-.4302-.6194-1.0267-1.0546-1.7898-1.3056-.763-.2507-1.8612-.3763-3.295-.3763h-5.2076zm0-10.4h4.8697c1.3212 0 2.2682-.0869 2.842-.2612.7578-.225 1.3289-.599 1.7127-1.1212.3843-.5225.5762-1.1777.5762-1.9664 0-.7475-.1793-1.4058-.5378-1.974-.3586-.5684-.8704-.9575-1.5361-1.1677-.6659-.2097-1.8078-.3148-3.4257-.3148h-4.501zm-2.9802 13.0576v-22.5205h8.4489c1.7205 0 3.1004.228 4.1401.6835 1.0395.456 1.8535 1.1576 2.4426 2.1046.5888.9476.8833 1.9382.8833 2.9726 0 .9627-.2612 1.869-.7834 2.7191-.5225.8501-1.3111 1.5362-2.3659 2.0584 1.3619.3994 2.4093 1.0806 3.1415 2.0431.7322.9627 1.0984 2.0995 1.0984 3.4104 0 1.0548-.2225 2.0353-.6682 2.9418-.4453.9063-.9961 1.6054-1.6513 2.0968-.6554.4916-1.4774.8631-2.4657 1.1137-.9883.2511-2.1994.3765-3.6331.3765z"/><path d="m81.0388 26.5043c0 2.0892.4555 3.6537 1.3671 4.6932.9115 1.0394 2.0586 1.5592 3.4412 1.5592 1.3723 0 2.5139-.5223 3.4257-1.567.9113-1.0445 1.3671-2.6369 1.3671-4.7775 0-2.0175-.4583-3.5459-1.3749-4.5856-.9168-1.0392-2.0561-1.5592-3.4179-1.5592-1.3826 0-2.5297.5172-3.4412 1.5515-.9116 1.0346-1.3671 2.5962-1.3671 4.6854zm-2.842 0c0-3.0209.8396-5.2589 2.5194-6.713 1.4029-1.2083 3.113-1.8128 5.1309-1.8128 2.2427 0 4.0759.7349 5.4994 2.2044 1.4233 1.4697 2.1353 3.5002 2.1353 6.0911 0 2.0993-.3148 3.7508-.9448 4.9543-.6297 1.2033-1.5465 2.1377-2.7495 2.8034-1.2037.6657-2.5171.9986-3.9404.9986-2.2839 0-4.13-.7322-5.5382-2.1969-1.4082-1.4644-2.1121-3.574-2.1121-6.3291z"/><path d="m98.5842 26.5043c0 2.0892.4555 3.6537 1.3671 4.6932.9117 1.0394 2.0587 1.5592 3.4407 1.5592 1.373 0 2.514-.5223 3.426-1.567.912-1.0445 1.367-2.6369 1.367-4.7775 0-2.0175-.458-3.5459-1.375-4.5856-.916-1.0392-2.056-1.5592-3.418-1.5592-1.382 0-2.529.5172-3.4407 1.5515-.9116 1.0346-1.3671 2.5962-1.3671 4.6854zm-2.842 0c0-3.0209.8396-5.2589 2.5194-6.713 1.403-1.2083 3.1134-1.8128 5.1304-1.8128 2.243 0 4.076.7349 5.5 2.2044 1.423 1.4697 2.135 3.5002 2.135 6.0911 0 2.0993-.315 3.7508-.945 4.9543-.629 1.2033-1.546 2.1377-2.749 2.8034-1.204.6657-2.517.9986-3.941.9986-2.283 0-4.1295-.7322-5.5377-2.1969-1.4082-1.4644-2.1121-3.574-2.1121-6.3291z"/><path d="m120.304 32.1038.4 2.4424c-.779.1638-1.475.2458-2.09.2458-1.003 0-1.782-.159-2.335-.4761-.553-.3173-.942-.7347-1.167-1.2521-.225-.5171-.338-1.6052-.338-3.2642v-9.3862h-2.028v-2.1506h2.028v-4.0403l2.75-1.659v5.6993h2.78v2.1506h-2.78v9.5397c0 .7888.048 1.2958.146 1.5208.097.2253.256.4048.476.5376.22.1332.535.1999.945.1999.307 0 .711-.0359 1.213-.1076z"/><path d="m121.844 29.7918 2.734-.4302c.154 1.0961.581 1.9357 1.283 2.5194s1.682.8757 2.942.8757c1.27 0 2.212-.2586 2.826-.7759.615-.517.922-1.1238.922-1.8203 0-.6246-.271-1.116-.814-1.4747-.379-.2458-1.321-.5583-2.827-.9371-2.027-.5122-3.433-.955-4.216-1.3289-.784-.3736-1.378-.891-1.782-1.5517-.405-.6605-.607-1.39-.607-2.1889 0-.7271.166-1.4004.499-2.02s.786-1.1343 1.36-1.5439c.43-.3173 1.016-.5862 1.759-.8067.742-.2198 1.538-.3301 2.388-.3301 1.28 0 2.405.1844 3.372.5531.968.3687 1.682.8679 2.143 1.4978.461.6298.778 1.4723.953 2.5269l-2.704.3688c-.123-.8396-.479-1.4953-1.068-1.9664-.589-.4708-1.421-.7066-2.496-.7066-1.27 0-2.176.21-2.719.6299-.543.4201-.814.9115-.814 1.4747 0 .3586.112.6812.338.9677.225.2972.578.543 1.06.7375.276.1023 1.09.3378 2.442.7066 1.956.5222 3.321.9499 4.094 1.2825.773.3331 1.38.817 1.821 1.4519.44.6351.66 1.4235.66 2.3656 0 .9219-.269 1.7898-.806 2.6038-.538.8144-1.314 1.444-2.328 1.8897-1.014.4453-2.161.6683-3.441.6683-2.12 0-3.735-.4403-4.847-1.3212-1.111-.8807-1.82-2.1865-2.127-3.9173z"/><path d="m144.782 32.1038.399 2.4424c-.778.1638-1.475.2458-2.089.2458-1.004 0-1.782-.159-2.335-.4761-.553-.3173-.942-.7347-1.168-1.2521-.225-.5171-.338-1.6052-.338-3.2642v-9.3862h-2.027v-2.1506h2.027v-4.0403l2.75-1.659v5.6993h2.781v2.1506h-2.781v9.5397c0 .7888.049 1.2958.146 1.5208.097.2253.256.4048.476.5376.22.1332.535.1999.945.1999.307 0 .712-.0359 1.214-.1076z"/><path d="m147.404 34.6615v-16.3143h2.489v2.4733c.635-1.1573 1.221-1.9202 1.759-2.2889s1.129-.5531 1.774-.5531c.932 0 1.879.2972 2.842.891l-.952 2.5653c-.676-.3993-1.352-.599-2.028-.599-.605 0-1.147.1821-1.628.5451-.482.3639-.825.8681-1.03 1.5133-.307.9833-.461 2.0586-.461 3.226v8.5413z"/><path d="m168.288 26.4737c-1.004.4096-2.509.758-4.516 1.0445-1.137.1638-1.941.3481-2.412.5531-.471.2049-.835.5044-1.091.8985-.256.3945-.384.8323-.384 1.3136 0 .7372.279 1.3518.837 1.8434.558.4917 1.375.7373 2.451.7373 1.065 0 2.012-.2329 2.842-.6991.829-.4656 1.438-1.1032 1.827-1.9124.297-.6244.446-1.5462.446-2.765zm.23 6.1754c-1.024.8704-2.009 1.4849-2.957 1.8434-.947.3584-1.964.5378-3.049.5378-1.792 0-3.17-.438-4.132-1.3134-.963-.8759-1.444-1.9947-1.444-3.3567 0-.7989.181-1.5286.545-2.1891.363-.6607.84-1.1905 1.429-1.59.588-.3994 1.252-.7012 1.989-.9063.543-.1433 1.362-.2817 2.458-.4147 2.232-.2664 3.876-.5839 4.931-.9524.01-.3788.015-.6196.015-.7222 0-1.1265-.261-1.9202-.783-2.381-.707-.6244-1.757-.9371-3.149-.9371-1.301 0-2.261.228-2.881.6836-.619.4559-1.077 1.2622-1.374 2.4195l-2.704-.3687c.246-1.1573.65-2.0915 1.213-2.8036.564-.7114 1.378-1.2597 2.443-1.6437 1.065-.3841 2.299-.576 3.702-.576 1.393 0 2.525.164 3.395.4916.87.3279 1.511.74 1.92 1.2367.41.4969.697 1.124.861 1.8818.092.4711.138 1.3211.138 2.55v3.6868c0 2.5708.059 4.1966.177 4.8776.117.681.35 1.3339.698 1.9585h-2.887c-.287-.5736-.472-1.2444-.554-2.0124z"/><path d="m177.96 26.5966c0 2.0993.424 3.6509 1.275 4.6545.85 1.0039 1.879 1.5056 3.087 1.5056 1.229 0 2.282-.5198 3.157-1.5593.876-1.0394 1.314-2.65 1.314-4.8313 0-2.079-.428-3.6355-1.283-4.6701-.855-1.0343-1.877-1.5515-3.065-1.5515-1.178 0-2.22.5506-3.126 1.6513-.906 1.1011-1.359 2.7015-1.359 4.8008zm-2.504 14.3171v-22.5665h2.519v2.1201c.594-.8297 1.265-1.4518 2.012-1.8667.748-.4147 1.654-.6221 2.719-.6221 1.393 0 2.622.3587 3.687 1.0754 1.065.7169 1.869 1.728 2.412 3.0339.543 1.3056.814 2.7369.814 4.2936 0 1.6693-.299 3.1721-.898 4.5088-.6 1.3362-1.47 2.3606-2.612 3.0725-1.142.7114-2.343 1.0675-3.602 1.0675-.922 0-1.749-.1946-2.481-.5839-.733-.389-1.334-.8807-1.805-1.4747v7.9421z"/></g></svg>

<svg width="190" height="48" viewBox="0 0 190 48" fill="none" xmlns="http://www.w3.org/2000/svg">
<path d="M48 39.9999C48 44.4 44.4 48 39.9999 48H7.99993C3.59999 48 0 44.4 0 39.9999V8.00014C0 3.59999 3.59999 0 7.99993 0H39.9999C44.4 0 48 3.59999 48 8.00014V39.9999Z" fill="#5B3B7E"/>
<path d="M17.8989 34.3963H26.5656C28.0558 34.3963 29.2165 34.012 30.0324 33.2356C30.8558 32.4669 31.2715 31.3689 31.2715 29.9571C31.2715 28.5688 30.8636 27.5101 30.0324 26.7571C29.201 26.0041 28.0558 25.6434 26.5656 25.6434H17.8989V34.3963ZM17.8989 22.1218H25.899C27.0755 22.1218 28.0558 21.7925 28.8402 21.118C29.6244 20.4435 30.0167 19.4866 30.0167 18.2318C30.0167 16.82 29.6637 15.8239 28.9577 15.2514C28.2519 14.6788 27.2323 14.3887 25.899 14.3887H17.8989V22.1218ZM12.9968 10.3965H26.6048C29.1146 10.3965 31.1304 10.9691 32.6441 12.122C34.1578 13.275 34.9185 15.0083 34.9185 17.3376C34.9185 18.7494 34.5735 19.9573 33.8832 20.9611C33.193 21.9649 32.2049 22.7494 30.9185 23.2983V23.3767C32.6441 23.7454 33.9539 24.5611 34.8401 25.8238C35.7264 27.0944 36.1734 28.6787 36.1734 30.5924C36.1734 31.6904 35.9773 32.7179 35.5853 33.667C35.1931 34.6238 34.5812 35.4473 33.7421 36.1375C32.9029 36.8278 31.8362 37.3767 30.5263 37.7846C29.2165 38.1924 27.6636 38.3964 25.8598 38.3964H12.9968V10.3965Z" fill="white"/>
<path d="M61.4656 31.9928H67.0726C68.0351 31.9928 68.7111 31.9569 69.1003 31.8852C69.7864 31.7623 70.36 31.5576 70.821 31.2709C71.2818 30.9841 71.6604 30.5668 71.9576 30.0189C72.2546 29.4709 72.4031 28.8385 72.4031 28.1216C72.4031 27.282 72.1881 26.5521 71.758 25.9323C71.3278 25.3129 70.7313 24.8777 69.9682 24.6267C69.2052 24.376 68.107 24.2504 66.6732 24.2504H61.4656V31.9928ZM61.4656 21.5928H66.3353C67.6565 21.5928 68.6035 21.5059 69.1773 21.3316C69.9351 21.1066 70.5062 20.7326 70.89 20.2104C71.2743 19.6879 71.4662 19.0327 71.4662 18.244C71.4662 17.4965 71.2869 16.8382 70.9284 16.27C70.5698 15.7016 70.058 15.3125 69.3923 15.1023C68.7264 14.8926 67.5845 14.7875 65.9666 14.7875H61.4656V21.5928ZM58.4854 34.6504V12.1299H66.9343C68.6548 12.1299 70.0347 12.3579 71.0744 12.8134C72.1139 13.2694 72.9279 13.971 73.517 14.918C74.1058 15.8656 74.4003 16.8562 74.4003 17.8906C74.4003 18.8533 74.1391 19.7596 73.6169 20.6097C73.0944 21.4598 72.3058 22.1459 71.251 22.6681C72.6129 23.0675 73.6603 23.7487 74.3925 24.7112C75.1247 25.6739 75.4909 26.8107 75.4909 28.1216C75.4909 29.1764 75.2684 30.1569 74.8227 31.0634C74.3774 31.9697 73.8266 32.6688 73.1714 33.1602C72.516 33.6518 71.694 34.0233 70.7057 34.2739C69.7174 34.525 68.5063 34.6504 67.0726 34.6504H58.4854Z" fill="#5B3B7E"/>
<path d="M81.0388 26.5043C81.0388 28.5935 81.4943 30.158 82.4059 31.1975C83.3174 32.2369 84.4645 32.7567 85.8471 32.7567C87.2194 32.7567 88.361 32.2344 89.2728 31.1897C90.1841 30.1452 90.6399 28.5528 90.6399 26.4122C90.6399 24.3947 90.1816 22.8663 89.265 21.8266C88.3482 20.7874 87.2089 20.2674 85.8471 20.2674C84.4645 20.2674 83.3174 20.7846 82.4059 21.8189C81.4943 22.8535 81.0388 24.4151 81.0388 26.5043ZM78.1968 26.5043C78.1968 23.4834 79.0364 21.2454 80.7162 19.7913C82.1191 18.583 83.8292 17.9785 85.8471 17.9785C88.0898 17.9785 89.923 18.7134 91.3465 20.1829C92.7698 21.6526 93.4818 23.6831 93.4818 26.274C93.4818 28.3733 93.167 30.0248 92.537 31.2283C91.9073 32.4316 90.9905 33.366 89.7875 34.0317C88.5838 34.6974 87.2704 35.0303 85.8471 35.0303C83.5632 35.0303 81.7171 34.2981 80.3089 32.8334C78.9007 31.369 78.1968 29.2594 78.1968 26.5043Z" fill="#5B3B7E"/>
<path d="M98.5842 26.5043C98.5842 28.5935 99.0397 30.158 99.9513 31.1975C100.863 32.2369 102.01 32.7567 103.392 32.7567C104.765 32.7567 105.906 32.2344 106.818 31.1897C107.73 30.1452 108.185 28.5528 108.185 26.4122C108.185 24.3947 107.727 22.8663 106.81 21.8266C105.894 20.7874 104.754 20.2674 103.392 20.2674C102.01 20.2674 100.863 20.7846 99.9513 21.8189C99.0397 22.8535 98.5842 24.4151 98.5842 26.5043ZM95.7422 26.5043C95.7422 23.4834 96.5818 21.2454 98.2616 19.7913C99.6646 18.583 101.375 17.9785 103.392 17.9785C105.635 17.9785 107.468 18.7134 108.892 20.1829C110.315 21.6526 111.027 23.6831 111.027 26.274C111.027 28.3733 110.712 30.0248 110.082 31.2283C109.453 32.4316 108.536 33.366 107.333 34.0317C106.129 34.6974 104.816 35.0303 103.392 35.0303C101.109 35.0303 99.2625 34.2981 97.8543 32.8334C96.4461 31.369 95.7422 29.2594 95.7422 26.5043Z" fill="#5B3B7E"/>
<path d="M120.304 32.1038L120.704 34.5462C119.925 34.71 119.229 34.792 118.614 34.792C117.611 34.792 116.832 34.633 116.279 34.3159C115.726 33.9986 115.337 33.5812 115.112 33.0638C114.887 32.5467 114.774 31.4586 114.774 29.7996V20.4134H112.746V18.2628H114.774V14.2225L117.524 12.5635V18.2628H120.304V20.4134H117.524V29.9531C117.524 30.7419 117.572 31.2489 117.67 31.4739C117.767 31.6992 117.926 31.8787 118.146 32.0115C118.366 32.1447 118.681 32.2114 119.091 32.2114C119.398 32.2114 119.802 32.1755 120.304 32.1038Z" fill="#5B3B7E"/>
<path d="M121.844 29.7918L124.578 29.3616C124.732 30.4577 125.159 31.2973 125.861 31.881C126.563 32.4647 127.543 32.7567 128.803 32.7567C130.073 32.7567 131.015 32.4981 131.629 31.9808C132.244 31.4638 132.551 30.857 132.551 30.1605C132.551 29.5359 132.28 29.0445 131.737 28.6858C131.358 28.44 130.416 28.1275 128.91 27.7487C126.883 27.2365 125.477 26.7937 124.694 26.4198C123.91 26.0462 123.316 25.5288 122.912 24.8681C122.507 24.2076 122.305 23.4781 122.305 22.6792C122.305 21.9521 122.471 21.2788 122.804 20.6592C123.137 20.0396 123.59 19.5249 124.164 19.1153C124.594 18.798 125.18 18.5291 125.923 18.3086C126.665 18.0888 127.461 17.9785 128.311 17.9785C129.591 17.9785 130.716 18.1629 131.683 18.5316C132.651 18.9003 133.365 19.3995 133.826 20.0294C134.287 20.6592 134.604 21.5017 134.779 22.5563L132.075 22.9251C131.952 22.0855 131.596 21.4298 131.007 20.9587C130.418 20.4879 129.586 20.2521 128.511 20.2521C127.241 20.2521 126.335 20.4621 125.792 20.882C125.249 21.3021 124.978 21.7935 124.978 22.3567C124.978 22.7153 125.09 23.0379 125.316 23.3244C125.541 23.6216 125.894 23.8674 126.376 24.0619C126.652 24.1642 127.466 24.3997 128.818 24.7685C130.774 25.2907 132.139 25.7184 132.912 26.051C133.685 26.3841 134.292 26.868 134.733 27.5029C135.173 28.138 135.393 28.9264 135.393 29.8685C135.393 30.7904 135.124 31.6583 134.587 32.4723C134.049 33.2867 133.273 33.9163 132.259 34.362C131.245 34.8073 130.098 35.0303 128.818 35.0303C126.698 35.0303 125.083 34.59 123.971 33.7091C122.86 32.8284 122.151 31.5226 121.844 29.7918Z" fill="#5B3B7E"/>
<path d="M144.782 32.1038L145.181 34.5462C144.403 34.71 143.706 34.792 143.092 34.792C142.088 34.792 141.31 34.633 140.757 34.3159C140.204 33.9986 139.815 33.5812 139.589 33.0638C139.364 32.5467 139.251 31.4586 139.251 29.7996V20.4134H137.224V18.2628H139.251V14.2225L142.001 12.5635V18.2628H144.782V20.4134H142.001V29.9531C142.001 30.7419 142.05 31.2489 142.147 31.4739C142.244 31.6992 142.403 31.8787 142.623 32.0115C142.843 32.1447 143.158 32.2114 143.568 32.2114C143.875 32.2114 144.28 32.1755 144.782 32.1038Z" fill="#5B3B7E"/>
<path d="M147.404 34.6615V18.3472H149.893V20.8205C150.528 19.6632 151.114 18.9003 151.652 18.5316C152.19 18.1629 152.781 17.9785 153.426 17.9785C154.358 17.9785 155.305 18.2757 156.268 18.8695L155.316 21.4348C154.64 21.0355 153.964 20.8358 153.288 20.8358C152.683 20.8358 152.141 21.0179 151.66 21.3809C151.178 21.7448 150.835 22.249 150.63 22.8942C150.323 23.8775 150.169 24.9528 150.169 26.1202V34.6615H147.404Z" fill="#5B3B7E"/>
<path d="M168.288 26.4737C167.284 26.8833 165.779 27.2317 163.772 27.5182C162.635 27.682 161.831 27.8663 161.36 28.0713C160.889 28.2762 160.525 28.5757 160.269 28.9698C160.013 29.3643 159.885 29.8021 159.885 30.2834C159.885 31.0206 160.164 31.6352 160.722 32.1268C161.28 32.6185 162.097 32.8641 163.173 32.8641C164.238 32.8641 165.185 32.6312 166.015 32.165C166.844 31.6994 167.453 31.0618 167.842 30.2526C168.139 29.6282 168.288 28.7064 168.288 27.4876V26.4737ZM168.518 32.6491C167.494 33.5195 166.509 34.134 165.561 34.4925C164.614 34.8509 163.597 35.0303 162.512 35.0303C160.72 35.0303 159.342 34.5923 158.38 33.7169C157.417 32.841 156.936 31.7222 156.936 30.3602C156.936 29.5613 157.117 28.8316 157.481 28.1711C157.844 27.5104 158.321 26.9806 158.91 26.5811C159.498 26.1817 160.162 25.8799 160.899 25.6748C161.442 25.5315 162.261 25.3931 163.357 25.2601C165.589 24.9937 167.233 24.6762 168.288 24.3077C168.298 23.9289 168.303 23.6881 168.303 23.5855C168.303 22.459 168.042 21.6653 167.52 21.2045C166.813 20.5801 165.763 20.2674 164.371 20.2674C163.07 20.2674 162.11 20.4954 161.49 20.951C160.871 21.4069 160.413 22.2132 160.116 23.3705L157.412 23.0018C157.658 21.8445 158.062 20.9103 158.625 20.1982C159.189 19.4868 160.003 18.9385 161.068 18.5545C162.133 18.1704 163.367 17.9785 164.77 17.9785C166.163 17.9785 167.295 18.1425 168.165 18.4701C169.035 18.798 169.676 19.2101 170.085 19.7068C170.495 20.2037 170.782 20.8308 170.946 21.5886C171.038 22.0597 171.084 22.9097 171.084 24.1386V27.8254C171.084 30.3962 171.143 32.022 171.261 32.703C171.378 33.384 171.611 34.0369 171.959 34.6615H169.072C168.785 34.0879 168.6 33.4171 168.518 32.6491Z" fill="#5B3B7E"/>
<path d="M177.96 26.5966C177.96 28.6959 178.384 30.2475 179.235 31.2511C180.085 32.255 181.114 32.7567 182.322 32.7567C183.551 32.7567 184.604 32.2369 185.479 31.1974C186.355 30.158 186.793 28.5474 186.793 26.3661C186.793 24.2871 186.365 22.7306 185.51 21.696C184.655 20.6617 183.633 20.1445 182.445 20.1445C181.267 20.1445 180.225 20.6951 179.319 21.7958C178.413 22.8969 177.96 24.4973 177.96 26.5966ZM175.456 40.9137V18.3472H177.975V20.4673C178.569 19.6376 179.24 19.0155 179.987 18.6006C180.735 18.1859 181.641 17.9785 182.706 17.9785C184.099 17.9785 185.328 18.3372 186.393 19.0539C187.458 19.7708 188.262 20.7819 188.805 22.0878C189.348 23.3934 189.619 24.8247 189.619 26.3814C189.619 28.0507 189.32 29.5535 188.721 30.8902C188.121 32.2264 187.251 33.2508 186.109 33.9627C184.967 34.6741 183.766 35.0302 182.507 35.0302C181.585 35.0302 180.758 34.8356 180.026 34.4463C179.293 34.0573 178.692 33.5656 178.221 32.9716V40.9137H175.456Z" fill="#5B3B7E"/>
</svg>
